static/human.svg

<?xml version="1.0" encoding="UTF-8"?>
<svg width="408px" height="442px" viewBox="0 0 408 442" version="1.1" xmlns="http://www.w3.org/2000/svg" xmlns:xlink="http://www.w3.org/1999/xlink">
    <!-- Generator: Sketch 52 (66869) - http://www.bohemiancoding.com/sketch -->
    <title>Group 10</title>
    <desc>Created with Sketch.</desc>
    <g id="Page-1" stroke="none" stroke-width="1" fill="none" fill-rule="evenodd">
        <g id="Medal-Home-Beta" transform="translate(-481.000000, -970.000000)">
            <g id="Group-10" transform="translate(481.000000, 970.000000)">
                <g id="Oval" fill="#28469B" opacity="0.300000012">
                    <path d="M209.688167,309.050033 C292.554629,309.050033 390,265.129124 390,172.231008 C390,79.3328918 189.947028,2.61179967e-14 107.080565,2.84217094e-14 C24.2141027,2.61179967e-14 -1.38555833e-12,115.547144 -1.38555833e-12,208.44526 C-1.38555833e-12,301.343376 126.821704,309.050033 209.688167,309.050033 Z"></path>
                </g>
                <g id="Group-2" transform="translate(41.000000, 2.000000)">
                    <g stroke-width="1">
                        <path d="M213.130271,64.4492294 L210.795271,75.2326903 C210.795271,75.2326903 194.355271,72.0073136 189.110271,60.6791981 L195.305271,42.9098407 C195.305271,44.5227793 195.925271,46.0020573 196.945271,47.1093882 C198.070271,48.3403678 199.700271,49.1132968 201.500271,49.1132968 C201.700271,49.1132968 201.910271,49.1037853 202.110271,49.0747504 C203.475271,59.1148178 208.195271,63.1416578 213.130271,64.4492294" id="Fill-32" fill="#D49588"></path>
                        <path d="M274.420271,397.073018 L254.640271,399.936459 L251.065271,391.346134 C249.160271,359.618 225.330271,332.660599 221.040271,321.922693 C216.750271,311.184787 215.325271,295.201576 214.605271,292.338635 C214.340271,291.278861 208.585271,284.71347 200.675271,276.324888 L200.665271,276.324888 C193.125271,268.318765 183.610271,258.651145 175.070271,250.530385 C168.350271,244.1367 162.230271,238.706173 158.135271,235.795174 C153.455271,232.464671 149.900271,228.113942 147.230271,223.713653 C141.450271,214.228252 139.785271,204.54211 139.785271,204.54211 L152.415271,198.577441 L168.140271,198.577441 L197.450271,209.790919 C197.450271,209.790919 217.010271,238.629581 230.420271,261.809942 L230.420271,261.819453 C234.890271,269.549744 238.675271,276.649278 240.820271,281.841518 C249.400271,302.597966 243.915271,310.468926 267.985271,380.613234 L274.420271,397.073018" id="Fill-33" fill="#E0A79C"></path>
                        <path d="M175.070271,250.530385 C169.715271,258.728238 161.890271,270.475357 154.710271,280.419309 C147.980271,289.752026 141.835271,297.501841 138.830271,299.257951 C130.252771,304.267973 62.1492714,278.978577 57.6212714,276.830996 C53.0937714,274.683915 30.8857714,272.507299 30.8857714,272.507299 L29.2177714,259.175776 L45.6977714,253.402837 C66.4287714,265.570462 96.6537714,263.709225 106.185771,265.140445 C115.717271,266.572166 121.674271,274.445128 126.916771,272.059761 C128.098771,271.515107 129.938771,268.309253 132.073771,263.671179 C137.040271,252.887718 143.580271,234.364454 147.230271,223.713653 C149.900271,228.113942 153.455271,232.464671 158.135271,235.795174 C162.230271,238.706173 168.350271,244.1367 175.070271,250.530385" id="Fill-34" fill="#E0A79C"></path>
                        <path d="M319.150271,389.318697 C322.810271,394.359756 318.685271,396.982909 318.685271,396.982909 C311.860271,401.993932 296.310271,407.165148 281.535271,409.7883 L281.520271,409.783294 C281.520271,409.783294 281.520271,409.783294 281.515271,409.793306 C264.730271,412.76688 248.970271,412.451501 248.200271,404.857374 C247.965271,402.594654 247.850271,400.417037 247.810271,398.369576 C247.620271,387.406399 249.445271,379.887362 249.445271,379.887362 C249.445271,379.887362 252.645271,386.5754 257.730271,384.998505 C266.710271,382.220166 264.065271,368.954221 264.065271,368.954221 C285.180271,398.064209 315.495271,384.267626 319.150271,389.318697" id="Fill-35" fill="#FFBE00"></path>
                        <path d="M281.515271,409.793306 C280.535271,410.083655 247.895271,419.73025 245.795271,413.617903 C243.670271,407.415448 247.810271,398.369576 247.810271,398.369576 C247.850271,400.417037 247.965271,402.594654 248.200271,404.857374 C248.970271,412.451501 264.730271,412.76688 281.515271,409.793306" id="Fill-36" fill="#2F3676"></path>
                        <path d="M5.47927141,305.505961 C-0.719728586,304.940281 0.0282714144,300.101966 0.0282714144,300.101966 C0.762271414,291.658317 7.12527141,276.54315 14.8937714,263.691203 L14.9032714,263.683193 C14.9032714,263.683193 14.9032714,263.683193 14.9032714,263.674182 C23.7312714,249.076137 34.3537714,237.416623 40.5682714,241.838938 C42.4197714,243.154019 44.1322714,244.502139 45.6967714,245.821725 C54.0557714,252.904238 58.8952714,259.114702 58.8952714,259.114702 C58.8952714,259.114702 51.3722714,257.234943 49.2037714,262.104796 C45.3737714,270.695121 57.6197714,276.829494 57.6197714,276.829494 C21.8397714,273.545046 11.6822714,306.080151 5.47927141,305.505961" id="Fill-37" fill="#FFBE00"></path>
                        <path d="M14.9032714,263.674182 C15.3322714,262.741562 29.5952714,231.80638 35.5682714,234.255323 C41.6287714,236.741311 45.6967714,245.821725 45.6967714,245.821725 C44.1322714,244.502139 42.4197714,243.154019 40.5682714,241.838938 C34.3537714,237.416623 23.7312714,249.076137 14.9032714,263.674182" id="Fill-38" fill="#2F3676"></path>
                        <path d="M230.420271,261.809942 L230.420271,261.819453 C221.985271,275.981975 200.675271,276.324888 200.675271,276.324888 L200.665271,276.324888 C193.125271,268.318765 183.610271,258.651145 175.070271,250.530385 C168.350271,244.1367 162.230271,238.706173 158.135271,235.795174 C153.455271,232.464671 149.900271,228.113942 147.230271,223.713653 C141.450271,214.228252 139.785271,204.54211 139.785271,204.54211 L152.415271,198.577441 L168.140271,198.577441 L197.450271,209.790919 C197.450271,209.790919 217.010271,238.629581 230.420271,261.809942" id="Fill-39" fill="#5C63AB"></path>
                        <path d="M149.040271,71.5918142 C149.040271,71.5918142 168.500271,60.6791981 189.110271,60.6791981 C209.725271,60.6791981 201.120271,66.1347553 201.120271,66.1347553 L212.225271,73.8014701 L219.495271,89.9053257 L186.310271,129.560989 L161.150271,117.579087 L154.225271,109.94391" id="Fill-40" fill="#D49588"></path>
                        <path d="M222.235271,109.349196 C221.575271,113.0136 220.710271,116.840199 219.690271,120.772426 C218.555271,125.124156 217.250271,129.590024 215.830271,134.075415 C207.880271,159.345287 196.735271,185.187848 197.450271,193.56742 C198.405271,204.780397 197.450271,209.790919 197.450271,209.790919 C197.450271,209.790919 197.450271,207.166264 177.565271,211.937499 C157.695271,216.709735 139.785271,204.54211 139.785271,204.54211 C139.070271,186.648604 154.560271,167.08509 155.990271,158.735054 C157.350271,150.775988 153.940271,109.347193 153.645271,105.49206 C153.805271,106.818154 155.380271,112.155569 166.120271,117.585095 C178.385271,123.78805 187.205271,120.323886 188.520271,107.564551 C189.825271,94.7962041 180.295271,72.484387 178.380271,68.0750874 C176.465271,63.6662883 168.755271,63.7323678 168.755271,63.7323678 C168.755271,63.7323678 176.720271,60.4404111 181.725271,60.4404111 C181.725271,60.4404111 201.530271,92.1715495 207.230271,92.4098359 C212.940271,92.6486229 220.325271,92.6486229 210.795271,75.2326903 L212.070271,69.3446133 C212.855271,69.5738888 213.475271,69.8021632 213.730271,69.9838816 C214.770271,70.6992414 227.715271,78.8114917 222.235271,109.349196" id="Fill-41" fill="#FFBE00"></path>
                        <path d="M202.351402,51.7601636 C201.105169,50.6783777 199.901215,49.5218952 198.767347,48.2966622 C197.952361,47.9484995 197.227354,47.4306699 196.64,46.7879847 C195.857707,45.9387124 195.310701,44.8706538 195.098233,43.6913087 C191.790017,38.7873065 189.782433,33.1023284 190.326207,26.9038476 C191.828964,9.77392727 211.211136,9.73275186 221.731444,16.0046341 C225.038716,16.0786004 227.41,17.0131977 227.41,17.0131977 C227.41,17.0131977 229.121948,22.6344668 229.677914,31.7725723 C229.866163,32.8530633 230.090616,33.949616 230.38374,35.0410705 C231.186667,38.0307866 234.018012,40.7054853 233.917938,43.6594933 C233.817225,46.6323271 231.037369,47.7078285 230.12119,50.0825642 C229.302553,52.2044728 228.643322,54.5188888 227.94437,56.5261684 C227.530655,58.5785045 227.037837,60.6792029 226.455,62.8202542 C226.455,62.8202542 226.095,62.9819486 225.445,63.2117248 C225.17,63.3063385 224.845,63.4119654 224.475,63.5266032 C221.92,64.3185551 217.275,65.3202591 212.825,64.1278258 C208.415511,62.9594931 204.177672,59.6201886 202.351402,51.7601636 Z" id="Combined-Shape" fill="#E0A79C"></path>
                        <path d="M227.715271,17.3346012 C227.715271,17.3346012 217.230271,13.2021343 209.605271,21.6287625 C205.845271,25.7797516 203.915271,31.8115013 202.905271,36.8690802 C202.455271,36.7644544 201.990271,36.7068852 201.500271,36.7068852 C198.080271,36.7068852 195.305271,39.4837228 195.305271,42.9098407 C195.305271,44.5227793 195.925271,46.0020573 196.945271,47.1093882 C197.770271,52.4082571 190.460271,56.8100477 190.460271,56.8100477 C183.310271,50.8363678 174.815271,27.0397661 180.895271,14.1567817 C186.965271,1.27329677 206.210271,4.44210544 211.510271,4.02160002 C217.465271,3.54452661 229.380271,-3.32673211 234.750271,2.03671434 C240.105271,7.40917162 227.715271,17.3346012 227.715271,17.3346012" id="Fill-43" fill="#222528"></path>
                        <path d="M202.905271,36.8690802 L205.075271,43.6211957 L207.235271,42.4282619 C207.235271,42.4282619 204.640271,23.5150296 212.960271,18.7763341 C221.280271,14.0376385 199.955271,18.7763341 199.955271,18.7763341 L190.185271,26.3239057 L202.905271,36.8690802" id="Fill-44" fill="#222528"></path>
                        <path d="M193.875271,139.963992 C192.285271,143.78108 181.010271,151.415256 178.380271,151.415256 C175.750271,151.415256 170.045271,146.490837 167.980271,145.689874 C165.920271,144.897422 157.020271,136.747626 157.020271,136.747626 C110.789771,125.248305 106.185771,110.379935 106.185771,110.379935 L106.185771,109.749677 C106.185771,109.749677 120.015771,93.5742354 135.400271,81.1112559 C137.430271,79.4597709 139.500271,77.8758672 141.565271,76.3965892 C148.345271,71.5587745 155.100271,67.9128924 160.830271,67.1209406 C181.485271,64.2579995 178.625271,83.5061343 172.430271,91.2939947 C170.125271,94.2039923 163.125271,97.1144905 155.265271,99.6149959 C152.870271,100.368902 150.395271,101.093773 147.945271,101.771588 C136.875271,104.83477 126.363771,106.886736 126.363771,106.886736 C126.363771,106.886736 156.390271,123.902688 164.965271,126.927824 C164.965271,126.927824 187.845271,129.466375 190.180271,130.267838 C192.525271,131.05979 190.180271,133.760536 190.180271,133.760536 C191.730271,134.23761 195.470271,136.146404 193.875271,139.963992" id="Fill-45" fill="#E0A79C"></path>
                        <path d="M254.880271,136.747626 C248.370271,137.577624 235.025271,134.714683 235.025271,134.714683 C235.025271,134.714683 223.080271,134.132483 215.830271,134.075415 C217.250271,129.590024 218.555271,125.124156 219.690271,120.772426 L236.090271,123.110235 C236.090271,123.110235 246.465271,117.861927 251.705271,116.745085 C256.950271,115.628243 261.390271,135.907617 254.880271,136.747626" id="Fill-46" fill="#E0A79C"></path>
                        <path d="M175.070271,250.530385 C169.715271,258.728238 161.890271,270.475357 154.710271,280.419309 C137.000271,276.60172 132.073771,263.671179 132.073771,263.671179 C137.040271,252.887718 143.580271,234.364454 147.230271,223.713653 C149.900271,228.113942 153.455271,232.464671 158.135271,235.795174 C162.230271,238.706173 168.350271,244.1367 175.070271,250.530385" id="Fill-47" fill="#2F3676"></path>
                    </g>
                    <ellipse id="Oval" fill="#040404" opacity="0.0549665179" cx="234" cy="423.5" rx="133" ry="16.5"></ellipse>
                    <ellipse id="Oval-Copy-4" fill="#040404" opacity="0.0549665179" transform="translate(286.000000, 423.500000) scale(1, -1) translate(-286.000000, -423.500000) " cx="286" cy="423.5" rx="56" ry="7"></ellipse>
                </g>
            </g>
        </g>
    </g>
</svg>

<svg xmlns="http://www.w3.org/2000/svg" width="367" height="440" viewBox="0 0 367 440">
    <g fill="none" fill-rule="evenodd">
        <path fill="#D49588" d="M213.13 64.45l-2.335 10.783s-16.44-3.226-21.685-14.554l6.195-17.77c0 1.614.62 3.093 1.64 4.2a6.163 6.163 0 0 0 4.555 2.004c.2 0 .41-.01.61-.038 1.365 10.04 6.085 14.067 11.02 15.374"/>
        <path fill="#E0A79C" d="M274.42 397.073l-19.78 2.863-3.575-8.59c-1.905-31.728-25.735-58.685-30.025-69.423-4.29-10.738-5.715-26.721-6.435-29.584-.265-1.06-6.02-7.626-13.93-16.014h-.01c-7.54-8.006-17.055-17.674-25.595-25.795-6.72-6.393-12.84-11.824-16.935-14.735-4.68-3.33-8.235-7.681-10.905-12.081-5.78-9.486-7.445-19.172-7.445-19.172l12.63-5.965h15.725l29.31 11.214s19.56 28.839 32.97 52.019v.01c4.47 7.73 8.255 14.83 10.4 20.022 8.58 20.756 3.095 28.627 27.165 98.771l6.435 16.46"/>
        <path fill="#E0A79C" d="M175.07 250.53c-5.355 8.198-13.18 19.945-20.36 29.89-6.73 9.332-12.875 17.082-15.88 18.838-8.577 5.01-76.68-20.28-81.209-22.427-4.527-2.147-26.735-4.324-26.735-4.324l-1.668-13.331 16.48-5.773c20.73 12.167 50.956 10.306 60.488 11.737 9.531 1.432 15.488 9.305 20.73 6.92 1.183-.545 3.023-3.75 5.158-8.389 4.966-10.783 11.506-29.307 15.156-39.957 2.67 4.4 6.225 8.75 10.905 12.081 4.095 2.911 10.215 8.342 16.935 14.735"/>
        <path fill="#FFBE00" d="M319.15 389.319c3.66 5.04-.465 7.664-.465 7.664-6.825 5.01-22.375 10.182-37.15 12.805l-.015-.005-.005.01c-16.785 2.974-32.545 2.659-33.315-4.936a77.464 77.464 0 0 1-.39-6.487c-.19-10.964 1.635-18.483 1.635-18.483s3.2 6.688 8.285 5.112c8.98-2.779 6.335-16.045 6.335-16.045 21.115 29.11 51.43 15.314 55.085 20.365"/>
        <path fill="#2F3676" d="M281.515 409.793c-.98.29-33.62 9.937-35.72 3.825-2.125-6.203 2.015-15.248 2.015-15.248.04 2.047.155 4.225.39 6.487.77 7.595 16.53 7.91 33.315 4.936"/>
        <path fill="#FFBE00" d="M5.48 305.506c-6.2-.566-5.452-5.404-5.452-5.404.734-8.444 7.097-23.559 14.866-36.41l.01-.009v-.009c8.827-14.598 19.45-26.257 25.664-21.835a78.24 78.24 0 0 1 5.129 3.983c8.359 7.082 13.198 13.293 13.198 13.293s-7.523-1.88-9.691 2.99c-3.83 8.59 8.416 14.724 8.416 14.724-35.78-3.284-45.938 29.251-52.14 28.677"/>
        <path fill="#2F3676" d="M14.903 263.674c.43-.932 14.692-31.868 20.665-29.419 6.06 2.486 10.129 11.567 10.129 11.567a78.24 78.24 0 0 0-5.129-3.983c-6.214-4.422-16.837 7.237-25.665 21.835"/>
        <path fill="#5C63AB" d="M230.42 261.81v.01c-8.435 14.162-29.745 14.505-29.745 14.505h-.01c-7.54-8.006-17.055-17.674-25.595-25.795-6.72-6.393-12.84-11.824-16.935-14.735-4.68-3.33-8.235-7.681-10.905-12.081-5.78-9.486-7.445-19.172-7.445-19.172l12.63-5.965h15.725l29.31 11.214s19.56 28.839 32.97 52.019"/>
        <path fill="#D49588" d="M149.04 71.592s19.46-10.913 40.07-10.913c20.615 0 12.01 5.456 12.01 5.456l11.105 7.666 7.27 16.104-33.185 39.656-25.16-11.982-6.925-7.635"/>
        <path fill="#FFBE00" d="M222.235 109.35c-.66 3.664-1.525 7.49-2.545 11.422a270.48 270.48 0 0 1-3.86 13.303c-7.95 25.27-19.095 51.113-18.38 59.492.955 11.213 0 16.224 0 16.224s0-2.625-19.885 2.146c-19.87 4.773-37.78-7.395-37.78-7.395-.715-17.893 14.775-37.457 16.205-45.807 1.36-7.959-2.05-49.388-2.345-53.243.16 1.326 1.735 6.664 12.475 12.093 12.265 6.203 21.085 2.739 22.4-10.02 1.305-12.769-8.225-35.08-10.14-39.49-1.915-4.409-9.625-4.343-9.625-4.343s7.965-3.292 12.97-3.292c0 0 19.805 31.732 25.505 31.97 5.71.239 13.095.239 3.565-17.177l1.275-5.888c.785.229 1.405.457 1.66.639 1.04.715 13.985 8.827 8.505 39.365"/>
        <path fill="#E0A79C" d="M202.351 51.76a45.722 45.722 0 0 1-3.584-3.463 6.166 6.166 0 0 1-2.127-1.509 6.192 6.192 0 0 1-1.542-3.097c-3.308-4.904-5.316-10.589-4.772-16.787 1.503-17.13 20.885-17.171 31.405-10.9 3.308.075 5.679 1.01 5.679 1.01s1.712 5.62 2.268 14.759c.188 1.08.413 2.177.706 3.268.803 2.99 3.634 5.664 3.534 8.618-.1 2.973-2.88 4.049-3.797 6.424-.818 2.121-1.478 4.436-2.177 6.443a96.744 96.744 0 0 1-1.489 6.294s-.36.162-1.01.392c-.275.094-.6.2-.97.315-2.555.792-7.2 1.793-11.65.6-4.41-1.168-8.647-4.507-10.474-12.367z"/>
        <path fill="#222528" d="M227.715 17.335s-10.485-4.133-18.11 4.294c-3.76 4.15-5.69 10.183-6.7 15.24a6.2 6.2 0 0 0-5.96 10.24c.825 5.3-6.485 9.701-6.485 9.701-7.15-5.974-15.645-29.77-9.565-42.653 6.07-12.884 25.315-9.715 30.615-10.135 5.955-.477 17.87-7.349 23.24-1.985 5.355 5.372-7.035 15.298-7.035 15.298"/>
        <path fill="#222528" d="M202.905 36.87l2.17 6.751 2.16-1.193s-2.595-18.913 5.725-23.652c8.32-4.738-13.005 0-13.005 0l-9.77 7.548 12.72 10.545"/>
        <path fill="#E0A79C" d="M193.875 139.964c-1.59 3.817-12.865 11.451-15.495 11.451-2.63 0-8.335-4.924-10.4-5.725-2.06-.793-10.96-8.942-10.96-8.942-46.23-11.5-50.834-26.368-50.834-26.368v-.63s13.83-16.176 29.214-28.639c2.03-1.651 4.1-3.235 6.165-4.714 6.78-4.838 13.535-8.484 19.265-9.276 20.655-2.863 17.795 16.385 11.6 24.173-2.305 2.91-9.305 5.82-17.165 8.321-2.395.754-4.87 1.479-7.32 2.157-11.07 3.063-21.581 5.115-21.581 5.115s30.026 17.016 38.601 20.04c0 0 22.88 2.54 25.215 3.34 2.345.793 0 3.494 0 3.494 1.55.477 5.29 2.385 3.695 6.203M254.88 136.748c-6.51.83-19.855-2.033-19.855-2.033s-11.945-.583-19.195-.64a270.48 270.48 0 0 0 3.86-13.303l16.4 2.338s10.375-5.248 15.615-6.365c5.245-1.117 9.685 19.163 3.175 20.003"/>
        <path fill="#2F3676" d="M175.07 250.53c-5.355 8.198-13.18 19.945-20.36 29.89-17.71-3.818-22.636-16.749-22.636-16.749 4.966-10.783 11.506-29.307 15.156-39.957 2.67 4.4 6.225 8.75 10.905 12.081 4.095 2.911 10.215 8.342 16.935 14.735"/>
        <ellipse cx="234" cy="423.5" fill="#040404" opacity=".055" rx="133" ry="16.5"/>
        <ellipse cx="286" cy="423.5" fill="#040404" opacity=".055" rx="56" ry="7" transform="matrix(1 0 0 -1 0 847)"/>
    </g>
</svg>
